X:1
T:Robin Hood and Arthur-a-Bland
M:6/8
L:1/8
K:G
%%score 1 2
V:1 clef-treble
V:2 clef-bass octave=-1
[V:1]B,|G>FG A>GF & B,2xB,2x|G>AB [B,^D]2 D/D/ & B,2x4|[G,E]3 [B,F]3|
w:In Nott-ing-ham there lives a jol-ly tan-ner, With a hey down,
[V:2]z|E3 F>E^D|E3 B,3|C3 G,3|
[V:1][CE]>[B,D][A,C] B,2 B,|G>FG A>GA & B,2x F2x|[GB]3-[GB]2B|e>de [GB]2B & E2x4|
w:down-a-down down, His name it is Arth-ur-a-Bland;* There's ne-ver a squire in
[V:2]A,2C [EG]2z|E3 D3|G>DB, G,2z|C3 E3|
[V:1]d>^cd B>A[EG] & D2x D2x|(F>G)E (^D>^C)D & C2x A,2x|E3-E2||
w:Nott-ing-ham-shire* Dare bid* bold Ar-*thur stand.*
[V:2]F3 G2E|A,3B,3|[E,G]3-[E,G]2||

